X: 11032
T: EVA'S HORNPIPE
C: Bob McQuillen 28 Dec 01
B: Bob's Note Book 11 #32
%R: hornpipe, reel
Z: 2020 John Chambers <jc:trillian.mit.edu>
M: C
L: 1/8
K: G	% and D
dc \
| B2GE DGBd | edBd g2dB | A2FE DEFE | FGAB cedc |
| B2GE DGBd | edBd gdBG | FGAB cedc | B2G2 G2  :|[K:D]
|: FG \
| A2AB Adfd | BGBd g2Bd | cedB Aceg | fafd AGFG |
| A2AB Adfd | BGBd g2ag | fdAf gecd | e2d2 d2  :|
%%begintext align
%% Eva Caton-Williams
%% from Hancock never misses the Nelson Monday Night
%% dance - She's a sweetie, a great cookie cooker, and
%% a real good dancer. How can you beat a combination
%% like that? Yummy!
%%endtext

%%sep 1 1 500

%%sep 1 1 500

